src/components/00-materials/images-raw/Life & Savings/Financial Loss 2.svg

<svg xmlns="http://www.w3.org/2000/svg" viewBox="0 0 96 96"><g fill="none" stroke="#00008f" stroke-linecap="round" stroke-linejoin="round" stroke-width="2"><path d="M79.07 15.8v40.72M16.41 68.13l.02-52.33"/><rect x="10.91" y="10.29" width="74.19" height="5.51" rx="2.5"/><path d="M68.35 74.07H13.67a2.76 2.76 0 0 1-2.76-2.76 2.76 2.76 0 0 1 2.76-2.76h50.69M47.75 10.29V5.88m0 84.24V74.07m-24.3 16.05l23.2-16.05m25.4 16.06l-23.2-16.06m-5.44-42.3l11.61 11.24 6.07-5.52 14.02 13.44"/><path d="M67.38 50.93h7.73v-7.72"/><ellipse cx="74.96" cy="66.35" rx="10.03" ry="10.22"/><path d="M69.55 64.77h5.41m-5.41 3.15h5.41M78 62.07a3.66 3.66 0 0 0-2.67-1.23c-2.36 0-4.27 2.47-4.27 5.51s1.91 5.5 4.27 5.5A3.69 3.69 0 0 0 78 70.63M20.91 27.14h18.2v41.4h-18.2zm4.55 31.94h9.1m-7.18 9.1v-9.1m5.25 9.1v-9.1m-8.57-36.4h11.9v4.45h-11.9zm5.95-3.15v2.8"/><circle cx="25.35" cy="31.68" r="1.4"/><circle cx="30.07" cy="31.68" r="1.4"/><circle cx="34.8" cy="31.68" r="1.4"/><circle cx="25.35" cy="38.57" r="1.4"/><circle cx="30.07" cy="38.57" r="1.4"/><circle cx="34.8" cy="38.57" r="1.4"/><circle cx="25.35" cy="45.45" r="1.4"/><circle cx="30.07" cy="45.45" r="1.4"/><circle cx="34.8" cy="45.45" r="1.4"/><circle cx="25.35" cy="52.33" r="1.4"/><circle cx="30.07" cy="52.33" r="1.4"/><circle cx="34.8" cy="52.33" r="1.4"/></g></svg>

<svg xmlns="http://www.w3.org/2000/svg" viewBox="0 0 96 96"><defs><style>.cls-2{fill:none;stroke:#00008f;stroke-linecap:round;stroke-linejoin:round;stroke-width:2px}</style></defs><g id="Layer_2" ><g id="icons"><path class="cls-2" d="M79.07 15.8v40.72M16.41 68.13l.02-52.33"/><rect class="cls-2" x="10.91" y="10.29" width="74.19" height="5.51" rx="2.5"/><path class="cls-2" d="M68.35 74.07H13.67a2.76 2.76 0 0 1-2.76-2.76 2.76 2.76 0 0 1 2.76-2.76h50.69M47.75 10.29V5.88M47.75 90.12V74.07M23.45 90.12l23.2-16.05M72.05 90.13l-23.2-16.06M43.41 31.77l11.61 11.24 6.07-5.52 14.02 13.44"/><path class="cls-2" d="M67.38 50.93h7.73v-7.72"/><ellipse class="cls-2" cx="74.96" cy="66.35" rx="10.03" ry="10.22"/><path class="cls-2" d="M69.55 64.77h5.41M69.55 67.92h5.41M78 62.07a3.66 3.66 0 0 0-2.67-1.23c-2.36 0-4.27 2.47-4.27 5.51s1.91 5.5 4.27 5.5A3.69 3.69 0 0 0 78 70.63M20.91 27.14h18.2v41.4h-18.2zM25.46 59.08h9.1M27.38 68.18v-9.1M32.63 68.18v-9.1M24.06 22.68h11.9v4.45h-11.9zM30.01 19.53v2.8"/><circle class="cls-2" cx="25.35" cy="31.68" r="1.4"/><circle class="cls-2" cx="30.07" cy="31.68" r="1.4"/><circle class="cls-2" cx="34.8" cy="31.68" r="1.4"/><circle class="cls-2" cx="25.35" cy="38.57" r="1.4"/><circle class="cls-2" cx="30.07" cy="38.57" r="1.4"/><circle class="cls-2" cx="34.8" cy="38.57" r="1.4"/><circle class="cls-2" cx="25.35" cy="45.45" r="1.4"/><circle class="cls-2" cx="30.07" cy="45.45" r="1.4"/><circle class="cls-2" cx="34.8" cy="45.45" r="1.4"/><circle class="cls-2" cx="25.35" cy="52.33" r="1.4"/><circle class="cls-2" cx="30.07" cy="52.33" r="1.4"/><circle class="cls-2" cx="34.8" cy="52.33" r="1.4"/></g></g></svg>
